X:1
T:Mozart's Dissonance Quartet: 2nd Movement.
T:Also 'With A Song In My Heart' by Richard Rogers & start of 1st mvmt, Dissonance Qt. arr. guitar G. Dempsey
%%score ( 1 2 3 4 )
L:1/8
Q:1/4=45
M:3/4
K:G
V:1 treble-8 nm="Guitar"
V:2 treble-8 
V:3 treble-8 
V:4 treble-8 
V:1
 !1![bd']2 [gb]3 [fa] | c'2 b2 z2 | [CEG] [EGc]2 [Gce]2 [Eg] | [df][ce]/[Bd]/4[ce]/4 d2 z2 | %4
 a4 b2 | d'2 c'3 b | [eb]/a/c'/e/ g2 a2 | !turn![gb]>[ac'] [bd']2 z2 | [dg]2 f[dg] [da][db] | %9
 [dfc'-]c'/4a/4f/4d/4 c z2 B/g/ | [eg]>[ce] [Bd]2 d/^d/[ce]/[Ac]/ | %11
 [Ac]/[GB]/[CFA]/[EG]/ [B,D]2 GD |: z d/^c/ ed z d | z d/^c/ ed z d | z g/f/ ag z g | %15
 z f/e/ gf z f | z a/^g/ ba z ^a | z !4!b/^a/ c'b z b | z e/^d/ fe z e | ea a a2 g | %20
 z f/e/ gf z c | B b2{/^c'b^a} b/c'/ e'/d'/c'/b/ | [da] a2 [^gb] [=g^c'][fd'] | a/^g/=g/f/ e4 | %24
 [Fd]3 d/^c/ ed | fe z e/^d/ fe | gf z g/f/ ag | z a/^g/ ba z b/a/ | c'b z c'/b/ d'c' | %29
 z =c/B/ d c2 ^c | !arpeggio!!1![Bd']/>[gb]/!1![bd']/>[gb]/ [dg]3 [fa] | [ac']2 [gb]g [fa][=fg] | %32
 [CEG]/E/[Gc-] c/G/[Gce-] e/c/[Eg] | [eg]/[^df]/[=d=f]/[ce]/ [Bd]2 z2 | a3 b/4a/4^g/4a/4 c'b | %35
 d'^c' =c'3 b | [eb]/a/c'/e/ g^g a^a | !turn![gb]>[ac'] [bd']3 z | [dg]3/2a/4g/4 f[dg] [da][db] | %39
 [dfc'-]c'/4a/4f/4d/4 c z2 B/g/ | [eg]>[ce] [Bd]/[gb]/[fa]/[eg]/ [df]/[ce]/[Bd]/[Ac]/ | %41
 [Ac]/[GB]/[FA]/[EG]/ [DG]4 :| %42
[K:C][M:2/2][Q:1/4=120] z2"^'With A Song In My Heart'          Lorenz Hart/Richard Rogers         Ad lib rhythm." g^f a2 gf | %43
 g8- | g2 g^f a2 gf | g2 =fe f4 | z2 e^d f2 ed | e8 | e2 e^d f2 ed | e2 d^c d4 | z2 cB d2 c2 | a8 | %52
 a2 a2 (3a2 b2 c'2 | a8 | a2 a2 (3[Aa]2 [Bb]2 [cc']2 | a4 b4 | e8 | f8 | z2 g^f a2 gf | g8 | %60
 g2 g^f a2 gf | g2 =fe f4 | z2 e^d f2 ed | e8 | e2 e^d f2 ed | e2 d^c d4 | z2 cB d2 c2 | a8 | %68
 z2 g^f a2 g2 | c'8- | c'2 c'b c'2 ba | c'4 d'4 | c'8- | c'4- c'2 z2 |] z8 | %75
[M:3/4][Q:1/4=48] z4 z"^Introduction to 1st movement of Dissonance Quartet." ^A- | A2 =A2 ^G2 | %77
 x6 | a3 b c'd' | _e'2 z2 z ^G- | G2 =G2 ^F2 | x6 | g3 a _bc' | d'2 g4- | ge f4 | F[Gd]/F/ ef g^g | %86
 a3 d [de]f | ^f6 | [e^f]2 =f2 e2 | d3 e/d/ ^c/d/e/d/ | [E^c]3 [ce] [df]d | [E^c]3 [=Ge] [Fd]B | %92
 [^CA]2 z [=G^ce] [Fdf]d | ^c3 [^DAc] [EAc][Ac] | [GA^c][^B^d] [ce]3 [ce] | %95
 [G^ce][^d^f] [eg]3 [ge'] | d'2{/^c'd'e'd'} c'4 | d2"^Straight to 2nd Movement >>"{/cde^c} d4 |] %98
V:2
 g2 d2 Dc/A/ | !0!G3 z x2 | G,2 E,2 C2 | G3/2 z/ BG, A,B, | ^CC [DF]D ^GG | AA [Ae][Af] B,B, | %6
 cc DD DD | [DG]3 G dc | [Bd]B [Ac][GB] F[EG] | D3 [DFc] [FA]G | [CG]C DD [DF]D | G,2 G,G [DG]D |: %12
 [B,G][GB] [GB][GB]/F/ [AB][GB] | D[FA] [FA][FA]/E/ [DG][DF] | %14
 !0![DE]d [de]!0![Ade]/^G/ [EB][EA^c] | [Dd][Ad] [Ad][Ad]/^c/ [Ade][Ad] | %16
 [Fcd][cd] [Dc][Fcd]/E/ [=Gcd][Fcd] | !0![GBd][Gd] [Gd][Gd]/F/ [Ad][Gd] | %18
 [D^GB][DB] [DB][D^GB]/F/ [DAB][D^GB] | [A,^c][Ec]/[DB]/ [Fd][EAc] A[EG^c] | %20
 [Dd][Ad] [Ad][A=c] [Fcd][EG] | G,[Gd] [DG]2 [DG]2 | F2 E2 D2 | A[Ad] [Gd][A,G^c] [A,Gc][A,Gc] | %24
 DD/^C/ ED z D | z D/^C/ ED z D | z D/^C/ ED z D/^C/ | ED z d/^c/ ed | z d/^c/ ed z [D=cf] | %29
 [EA]D z4 | [DG]2 B,2 Dc/A/ | f G3 GB | G,2 E,2 C2 | G2 z G ED | ^CC DD ^GG | %35
 [E^g][EAe] [^DAf][Df] [E=g]E | cc DD DD | [DG]3 d ^c=c | BB [Ac][GB] F[EG] | D2 z [DFc] [^DA]E | %40
 [CG]C D2 D2 | G,2 G,4 :|[K:C][M:2/2] [CGe]2 z2 C2 [Ge]2 | G,2 z2 G,2 F2 | [CGe]2 z2 C2 [Ge]2 | %45
 [DG]2 [=FGB]2 G,2 [B,F]2 | [CE]2 [Gc]2 G,2 [EGc]2 | B,2 z2 E,2 E,2 | A,2 [EAc]2 E,2 [EAc]2 | %49
 B,2 [D^G]2 E,2 [EGB]2 | A,2 [EA]2 [G,D]2 [EA]2 | ^F3 F G,2 A,2 | [Fc]2 c2 [Ddf]4 | %53
 [Cce]3 [ce] [CG]2 [CGf]e | [B,^F^d]2 [Fd]2 F2 z2 | [Ddf]3 [Ddf] [B,A^df]3 [Adf] | %56
 [E,E] [E^G]2 D [^CE]2 A,2 | D [Ad]2 c [G,B]2 [B,FG]2 | [CGe]2 z2 C2 [Ge]2 | G,2 z2 G,2 F2 | %60
 [CGe]2 z2 C2 [Ge]2 | [DG]2 [=FGB]2 G,2 [B,F]2 | [CE]2 [Gc]2 [G,G]2 [EGc]2 | B,2 z2 E,2 E,2 | %64
 A,2 [EAc]2 E,2 [EAc]2 | B,2 [D^G]2 E,2 [EGB]2 | A,2 [EA]2 [G,D]2 [EA]2 | ^F3 F D2 [DF]2 | %68
 [A,ce]2 C2 [A,c]2 [G,ce]2 | [A,c^f]2 [D^Gf]2 [DB]_B [DA]2 | [A,EG]2 [EG]2 [EG]2 [EG]2 | %71
 F2 [df]2 G2 [FGB]2 | [CGce]2 [CG]2 [Gc]2 [ce]2 | [ceg]4 [CGce]2 z2 |] x8 |[M:3/4] DD DD DD | %76
 DD DD DD | [^CA]C C[CB] C[DB] | [^CE^c][CBd] [Cce]^G, A,B, | CC CC CC | CC CC CC | %81
 B,B, B,[B,A] [B,B][B,A=c] | [B,DB][B,Ac] [B,d]^F, G,A, | _B,[B,^f] B,[B,A] [B,^A][B,B] | %84
 [=A,c]A, A,[A,F] [A,G][A,A] | G,G, G,G, G,G, | F6 | EA, ^A,[B,A] [CA]^C | %88
 [DA]d c[DB] [^C_B][=CA] | [B,DA]E [_B,F]^F G[D^G] | A,^G A2 z [F^G] | A,^G A2 z [D^G] | %92
 A,^G A2 z [^GB] | AA, ^C^F, G,C | z A, ^C^D E[CG] | z A, ^C[^D^B] [E^c][A,c] | [A,eg]4 ^c2 | %97
 [A,^Fc]6 |] %98
V:3
 x6 | [Af]2 gG [FA][B,=FG] | x6 | x6 | [Ge]2 x2 =f2 | ^g2 x2 [d=g]2 | x2 [Bd]2 f2 | x6 | x6 | x6 | %10
 x6 | x6 |: x6 | x6 | x6 | x6 | x6 | x6 | x6 | x6 | x6 | x6 | x6 | x6 | x6 | x6 | x6 | x6 | x6 | %29
 x6 | x6 | x6 | x6 | x6 | [Ge]2 F2 =f2 | x6 | x2 [Bd]2 F2 | x6 | x6 | x6 | x6 | x6 :| %42
[K:C][M:2/2] x8 | B =F2 B A2 G2 | x8 | x8 | x8 | B2 [D^Gd]2 F [E^G]2 F | x8 | x8 | x8 | %51
 z [ce]2 [ce]3 [ce]2 | x8 | x8 | x8 | x8 | x8 | x8 | x8 | B =F2 A Bc (3def | x8 | x8 | x8 | %63
 B2 [D^G]^F ^G[E=A] (3Bcd | x8 | x8 | x8 | z [ce]3 [de]2 [cd]2 | x8 | x8 | x8 | x8 | x8 | x8 |] %74
 x8 |[M:3/4] x6 | z2 b4- | [^d=b]2 [ea]2 ^g2 | x6 | x6 | z2 =a4- | [^c=a]2 [Dg]2 ^f2 | x6 | x6 | %84
 x6 | _B2 E4 | e[^CA] [DG]=F ED | d^c d^d e2 | x6 | x6 | x6 | x6 | x6 | x6 | x6 | x6 | x6 | x6 |] %98
V:4
 x6 | x6 | x6 | x6 | x6 | x6 | x6 | x6 | x6 | x6 | x6 | x6 |: x6 | x6 | x6 | x6 | x6 | x6 | x6 | %19
 x6 | x6 | x6 | x6 | x6 | x6 | [G^c]6 | [Ac]4 [GB]2 | B2 [=cf]4 | [GB]2 [GB]2 [Af]2 | A,4 x2 | x6 | %31
 x6 | x6 | x6 | x6 | x6 | x6 | x6 | x6 | x6 | x6 | x6 :|[K:C][M:2/2] x8 | x8 | x8 | x8 | x8 | x8 | %48
 x8 | x8 | x8 | x8 | x8 | x8 | x8 | x8 | x8 | x8 | x8 | x8 | x8 | x8 | x8 | x8 | x8 | x8 | x8 | %67
 x8 | x8 | x8 | x8 | x8 | x8 | x8 |] x8 |[M:3/4] x6 | ^e4 =e2 | x6 | x6 | x6 | ^d4 =d2 | x6 | x6 | %83
 x6 | x6 | x6 | x6 | x6 | x6 | x6 | x6 | x6 | x6 | x6 | x6 | x6 | x6 | x6 |] %98

